X:139
T:Lady Nelson’s Reel. RHu.139
S:R.Hughes MS,1823,Whitchurch,Shrops.
A:Whitchurch, Shropshire
Z:Tony Weatherall 2006
M:C
L:1/8
Q:1/2=100
R:Reel
K:G
g2dg edcB|aefg fddf|g2dg edcB|dABc BGG2:|
DGBG dBcA|GBde cAAB|GBdg egaf|edef d4({ef}|
g2)dg edcB|aefg fddf|g2dg cgBg|Aedc BG G2|]

